X: 2
T: The Red Haired Boy
R: reel
M: 4/4
L: 1/8
K: Amix
AG|E2A2 AB cd|ef ec d2cd|e2A2 AB cA|BA EF G2 GF|E2A2 AB cd|ef ec d2cd|e a2 b ag ed|c2A2A2:||:ef|gf ga gf ef|gf ec d2cd|e2A2 AB cA|BA EF G3F|E2A2 AB cd|ef ec d2cd|e a2 b ag ed|c2 A2 A2:|


Tune 566	Setting 13541

